X: 1
T: Kelly The Rake
M: 6/8
L: 1/8
R: jig
K: Gmaj
|:gdB gdB|gdB g2a|bag gfg|afd d2e|
gdB gdB|gdB g2a|bag fga|ggg g3:|
|:=fd_B BA B|=f_BB gBB|=fd_B BAB|cA=F FAc|
=fd_B BAB|=f_BB gBB|=fgf fga|_bbb b3:||
